toonz/sources/toonz/Resources/preferences.svg

<svg width="18px" height="18px" xmlns="http://www.w3.org/2000/svg" xmlns:xlink="http://www.w3.org/1999/xlink">
<g style="">  <path d="M10.174000,1.087000 C9.396000,0.971000,8.604000,0.971000,7.826000,1.087000 L7.639000,3.074000 C6.978000,3.226000,6.347000,3.487000,5.772000,3.847000 L4.234000,2.574000 C3.602000,3.043000,3.043000,3.602000,2.574000,4.234000 L3.847000,5.772000 C3.487000,6.347000,3.226000,6.978000,3.074000,7.639000 L1.087000,7.826000 C0.971000,8.604000,0.971000,9.396000,1.087000,10.174000 L3.074000,10.361000 C3.226000,11.022000,3.487000,11.653000,3.847000,12.228000 L2.574000,13.766000 C3.043000,14.398000,3.602000,14.957000,4.234000,15.426000 L5.772000,14.153000 C6.347000,14.513000,6.978000,14.774000,7.639000,14.926000 L7.826000,16.913000 C8.604000,17.029000,9.396000,17.029000,10.174000,16.913000 L10.361000,14.926000 C11.022000,14.774000,11.653000,14.513000,12.228000,14.153000 L13.766000,15.426000 C14.398000,14.957000,14.957000,14.398000,15.426000,13.766000 L14.153000,12.228000 C14.513000,11.653000,14.774000,11.022000,14.926000,10.361000 L16.913000,10.174000 C17.029000,9.396000,17.029000,8.604000,16.913000,7.826000 L14.926000,7.639000 C14.774000,6.978000,14.513000,6.347000,14.153000,5.772000 L15.426000,4.234000 C14.957000,3.602000,14.398000,3.043000,13.766000,2.574000 L12.228000,3.847000 C11.653000,3.487000,11.022000,3.226000,10.361000,3.074000 Z M9.000000,5.640000 C10.854000,5.640000,12.360000,7.146000,12.360000,9.000000 C12.360000,10.854000,10.854000,12.360000,9.000000,12.360000 C7.146000,12.360000,5.640000,10.854000,5.640000,9.000000 C5.640000,7.146000,7.146000,5.640000,9.000000,5.640000 Z " style="fill: rgba(218, 218, 218, 1.000000); stroke-width: 1.000000px; stroke: rgba(0, 0, 0, 1.000000); " fill="#e1e1e1" stroke="#000000" stroke-width="1.000000" />
</g></svg>

<?xml version="1.0" encoding="UTF-8" standalone="no"?><!DOCTYPE svg PUBLIC "-//W3C//DTD SVG 1.1//EN" "http://www.w3.org/Graphics/SVG/1.1/DTD/svg11.dtd"><svg width="100%" height="100%" viewBox="0 0 18 18" version="1.1" xmlns="http://www.w3.org/2000/svg" xmlns:xlink="http://www.w3.org/1999/xlink" xml:space="preserve" xmlns:serif="http://www.serif.com/" style="fill-rule:evenodd;clip-rule:evenodd;stroke-linejoin:round;stroke-miterlimit:1.41421;"><path d="M10.174,1.087c-0.778,-0.116 -1.57,-0.116 -2.348,0l-0.187,1.987c-0.661,0.152 -1.292,0.413 -1.867,0.773l-1.538,-1.273c-0.632,0.469 -1.191,1.028 -1.66,1.66l1.273,1.538c-0.36,0.575 -0.621,1.206 -0.773,1.867l-1.987,0.187c-0.116,0.778 -0.116,1.57 0,2.348l1.987,0.187c0.152,0.661 0.413,1.292 0.773,1.867l-1.273,1.538c0.469,0.632 1.028,1.191 1.66,1.66l1.538,-1.273c0.575,0.36 1.206,0.621 1.867,0.773l0.187,1.987c0.778,0.116 1.57,0.116 2.348,0l0.187,-1.987c0.661,-0.152 1.292,-0.413 1.867,-0.773l1.538,1.273c0.632,-0.469 1.191,-1.028 1.66,-1.66l-1.273,-1.538c0.36,-0.575 0.621,-1.206 0.773,-1.867l1.987,-0.187c0.116,-0.778 0.116,-1.57 0,-2.348l-1.987,-0.187c-0.152,-0.661 -0.413,-1.292 -0.773,-1.867l1.273,-1.538c-0.469,-0.632 -1.028,-1.191 -1.66,-1.66l-1.538,1.273c-0.575,-0.36 -1.206,-0.621 -1.867,-0.773l-0.187,-1.987Zm-1.174,4.553c1.854,0 3.36,1.506 3.36,3.36c0,1.854 -1.506,3.36 -3.36,3.36c-1.854,0 -3.36,-1.506 -3.36,-3.36c0,-1.854 1.506,-3.36 3.36,-3.36Z" style="fill:#ebebeb;stroke:#181818;stroke-width:1px;"/></svg>
